X:158
T:Spain
C:Chick Corea
N: TablEdited by Mike Black
L:1/8
Q:1/4=220
M:4/4
K:D
|: "D"d2 fd ed Bd | zc Ac zB G2 | "Em7"A3A3 A2 | z4 "F#sus"F3F | z2 F6 | z6 F2 | 
"GM7"G3A z2 B2 | c3d z2 e2 | "F#7"d3e/d/ c/z7/2 | z6 F2 | "Em7"G3A z2 B2 | "A7b9"c3d z2 e2 | 
"DM7"d2 ef z4 | "GM7"z4 z{d}e2d | "C#7"c3d z2 e2 | "F#7"d4 c4 | "Bm"c3B z4 | z8 | 
B3d4g | f2 dB e3A | z3d c4 | AB2G zG d2 | e3e g2 fd | B2 dB e2 cB | zF E3F2B | 
c3{^G}^A z=G F2 | zC FC GC ^A=A | zF2f3 "F#sus"f2 |1 e4 d3B | z6 b2 | z8 :|2 e4 d3B |] 
"GM7"z8 | z8 | z8 | z2 Bc dc B2 | {c}"F#7"d3c z2 ^A2 | z8 | z8 | z4 {e}f4 | "Em7"e3d z2 B2 | 
z8 | "A7"z8 | z2 AB cd e2 | "DM7"d3e z2 f2 | z8 | "GM7"z8 | z4 z{d}e2d | "C#7"c3d z2 e2 | 
z8 | "F#7"z8 | z4 d2 z/c3/2 | "Bm"c6 B2 | z8 | "B7b9"B8 | z6 F2 | "GM7"e8 | "D/Bb"d8 | 
"Bsus"B8 | b8 | 


